korla/apps/scalable/firejail-ui.svg

<svg clip-rule="evenodd" fill-rule="evenodd" stroke-linejoin="round" stroke-miterlimit="2" viewBox="0 0 48 48" xmlns="http://www.w3.org/2000/svg">
 <linearGradient id="a" x2="1" gradientTransform="matrix(-.0993789 -52 52 -.0993789 340.075 57.9037)" gradientUnits="userSpaceOnUse">
  <stop stop-color="#af025b" offset="0"/>
  <stop stop-color="#c64835" offset="1"/>
 </linearGradient>
 <path d="m39.44 45.668h-30.88c-3.438 0-6.228-2.79-6.228-6.228v-30.88c0-3.438 2.79-6.228 6.228-6.228h30.88c3.438 0 6.228 2.79 6.228 6.228v30.88c0 3.438-2.79 6.228-6.228 6.228z" fill="url(#a)"/>
 <path transform="matrix(1.05572 0 0 1.05572 -.941442 -1.73323)" d="m32.25 12v-7.125c0-1.035.84-1.875 1.875-1.875s1.875.84 1.875 1.875v7.125h7.125c1.035 0 1.875.84 1.875 1.875s-.84 1.875-1.875 1.875h-7.125v6.75h7.125c1.035 0 1.875.84 1.875 1.875s-.84 1.875-1.875 1.875h-7.125v6.75h7.125c1.035 0 1.875.84 1.875 1.875s-.84 1.875-1.875 1.875h-7.125v7.125c0 1.035-.84 1.875-1.875 1.875s-1.875-.84-1.875-1.875v-7.125h-6.75v7.125c0 1.035-.84 1.875-1.875 1.875s-1.875-.84-1.875-1.875v-7.125h-6.75v7.125c0 1.035-.84 1.875-1.875 1.875s-1.875-.84-1.875-1.875v-7.125h-7.125c-1.035 0-1.875-.84-1.875-1.875s.84-1.875 1.875-1.875h7.125v-6.75h-7.125c-1.035 0-1.875-.84-1.875-1.875s.84-1.875 1.875-1.875h7.125v-6.75h-7.125c-1.035 0-1.875-.84-1.875-1.875s.84-1.875 1.875-1.875h7.125v-7.125c0-1.035.84-1.875 1.875-1.875s1.875.84 1.875 1.875v7.125h6.75v-7.125c0-1.035.84-1.875 1.875-1.875s1.875.84 1.875 1.875v7.125zm-17.25 14.25v6.75h6.75v-6.75zm10.5 0v6.75h6.75v-6.75zm-10.5-10.5v6.75h6.75v-6.75zm10.5 0v6.75h6.75v-6.75z" fill="#3b3b3b"/>
 <path transform="scale(.75)" d="m26.5 9.5-1.414 2.586-2.586 1.414 2.586 1.414 1.414 2.586 1.414-2.586 2.586-1.414-2.586-1.414zm11 6-1.766 3.234-3.234 1.766 3.234 1.766 1.766 3.234 1.766-3.234 3.234-1.766-3.234-1.766zm-17.133 5.5-5.367 5.367 5.84 5.844 5.371-5.371zm7.817 7.816-5.368 5.368 20.817 20.816 5.367-5.367zm-11.684 7.684-1.059 1.941-1.941 1.059 1.941 1.063 1.059 1.937 1.059-1.938 1.941-1.062-1.941-1.059z" fill="#fff" fill-rule="nonzero"/>
</svg>

<svg style="clip-rule:evenodd;fill-rule:evenodd;stroke-linejoin:round;stroke-miterlimit:2" version="1.1" viewBox="0 0 48 48" xmlns="http://www.w3.org/2000/svg">
 <path d="m39.44 45.668h-30.88c-3.438 0-6.228-2.79-6.228-6.228v-30.88c0-3.438 2.79-6.228 6.228-6.228h30.88c3.438 0 6.228 2.79 6.228 6.228v30.88c0 3.438-2.79 6.228-6.228 6.228z" style="fill:url(#_Linear1)"/>
 <g transform="matrix(1.05572 0 0 1.05572 -.941442 -1.73323)">
  <path d="m32.25 12v-7.125c0-1.035 0.84-1.875 1.875-1.875s1.875 0.84 1.875 1.875v7.125h7.125c1.035 0 1.875 0.84 1.875 1.875s-0.84 1.875-1.875 1.875h-7.125v6.75h7.125c1.035 0 1.875 0.84 1.875 1.875s-0.84 1.875-1.875 1.875h-7.125v6.75h7.125c1.035 0 1.875 0.84 1.875 1.875s-0.84 1.875-1.875 1.875h-7.125v7.125c0 1.035-0.84 1.875-1.875 1.875s-1.875-0.84-1.875-1.875v-7.125h-6.75v7.125c0 1.035-0.84 1.875-1.875 1.875s-1.875-0.84-1.875-1.875v-7.125h-6.75v7.125c0 1.035-0.84 1.875-1.875 1.875s-1.875-0.84-1.875-1.875v-7.125h-7.125c-1.035 0-1.875-0.84-1.875-1.875s0.84-1.875 1.875-1.875h7.125v-6.75h-7.125c-1.035 0-1.875-0.84-1.875-1.875s0.84-1.875 1.875-1.875h7.125v-6.75h-7.125c-1.035 0-1.875-0.84-1.875-1.875s0.84-1.875 1.875-1.875h7.125v-7.125c0-1.035 0.84-1.875 1.875-1.875s1.875 0.84 1.875 1.875v7.125h6.75v-7.125c0-1.035 0.84-1.875 1.875-1.875s1.875 0.84 1.875 1.875v7.125h6.75zm-17.25 14.25v6.75h6.75v-6.75h-6.75zm10.5 0v6.75h6.75v-6.75h-6.75zm-10.5-10.5v6.75h6.75v-6.75h-6.75zm10.5 0v6.75h6.75v-6.75h-6.75z" style="fill:rgb(59,59,59)"/>
 </g>
 <g transform="scale(.75)">
  <path d="M26.5,9.5L25.086,12.086L22.5,13.5L25.086,14.914L26.5,17.5L27.914,14.914L30.5,13.5L27.914,12.086L26.5,9.5ZM37.5,15.5L35.734,18.734L32.5,20.5L35.734,22.266L37.5,25.5L39.266,22.266L42.5,20.5L39.266,18.734L37.5,15.5ZM20.367,21L15,26.367L20.84,32.211L26.211,26.84L20.367,21ZM28.184,28.816L22.816,34.184L43.633,55L49,49.633L28.184,28.816ZM16.5,36.5L15.441,38.441L13.5,39.5L15.441,40.563L16.5,42.5L17.559,40.562L19.5,39.5L17.559,38.441L16.5,36.5Z" style="fill-rule:nonzero;fill:white"/>
 </g>
 <defs>
  <linearGradient id="_Linear1" x2="1" gradientTransform="matrix(-.0993789 -52 52 -.0993789 340.075 57.9037)" gradientUnits="userSpaceOnUse">
   <stop style="stop-color:rgb(175,2,91)" offset="0"/>
   <stop style="stop-color:rgb(198,72,53)" offset="1"/>
  </linearGradient>
 </defs>
</svg>
